X:62
T:Steyrer Tanz in G, nr. 21
C:traditionell
R:Steirer
A:Hallstatt, Salzkammergut
B:Corpus Musicae Popularis Austriacae (COMPA), 5.Band: J.M.Schmalnauer " Tanz Musik", Verlag Boehlau, Wien 1996
S:manuscript des Johann Michael Schmalnauer um 1820
N:im der quelle in G
Z:abc transcription Simon Wascher
F:http://simonwascher.info/TradArchiv/
M:3/4
L:1/8
K:G
V:1
%violino 1mo
P:h:Apl
(B,C) |\
D2 (B,D).D.G | B2 (GD).G.B | A2 AGFD | G2 BDB,C |\
D2 (B,D).D.G | B2 (GD).G.B | A2 AGFD | "in D" G4 :|
V:2
%violino 2do
(G,A,) |\
B,2 (G,B,).B,.D | G2 (DB,).D.G | F2 FEDC | B,2 DB,G,A, |\
B,2 (G,B,).B,.D | G2 (DB,).D.G | F2 FEDC | B,4 :|
